!!!!SEGMENT: T697_Cop-w1v2p25m4-1h13m1.krn
!!!COM: Copland, Aaron
!!!OTL: II: Scherzo: Molto allegro
!!!AGN: Orchestral
!!!AGN-sub: Symphonic
!!!CNT: American
!!!ODT: 1924 (rev. 1928)
!!!OPR: Symphony No. 1
!!!filename: T697_Cop-w1v2p25m4-1h13m1.krn
**kern	**dynam	**kern	**dynam	**kern	**dynam	**kern	**dynam	**kern	**dynam	**kern	**dynam	**kern	**kern	**dynam	**kern	**kern	**dynam	**kern	**dynam	**kern	**dynam	**kern	**dynam	**kern	**dynam
*grp:A	*	*grp:A	*	*grp:A	*	*grp:A	*	*grp:A	*	*grp:A	*	*grp:A	*grp:A	*	*grp:A	*grp:A	*	*grp:B	*	*grp:B	*	*grp:B	*	*grp:A	*
*part12	*	*part11	*	*part10	*	*part9	*	*part8	*	*part7	*	*part6	*part6	*	*part5	*part5	*	*part4	*	*part3	*	*part2	*	*part1	*
*staff14	*	*staff13	*	*staff12	*	*staff11	*	*staff10	*	*staff9	*	*staff8	*staff7	*staff7/8	*staff6	*staff5	*staff5/6	*staff4	*	*staff3	*	*staff2	*	*staff1	*
*I"Viola	*	*I"Viola	*	*I"Violin II	*	*I"Violin II	*	*I"Violin I	*	*I"Violin I	*	*I"Harp II	*I"Harp II	*	*I"Harp I	*I"Harp I	*	*I"Alto Saxophone	*	*I"Bass Clarinet in Bb	*	*I"Cor Anglais	*	*I"Oboe	*
*I'Vla.	*	*I'Vla.	*	*I'Vln. II	*	*I'Vln. II	*	*I'Vln. I	*	*I'Vln. I	*	*I'Hp.	*	*	*I'Hp.	*	*	*I'Alto Sax.	*	*I'B. Cl.	*	*I'C. A.	*	*I'Ob.	*
*clefC3	*	*clefC3	*	*clefG2	*	*clefG2	*	*clefG2	*	*clefG2	*	*clefF4	*clefG2	*	*clefF4	*clefG2	*	*clefG2	*	*clefG2	*	*clefG2	*	*clefG2	*
*	*	*	*	*	*	*	*	*	*	*	*	*	*	*	*	*	*	*ITrd5c9	*	*ITrd1c2	*	*ITrd4c7	*	*	*
*k[]	*	*k[]	*	*k[]	*	*k[]	*	*k[]	*	*k[]	*	*k[]	*k[]	*	*k[]	*k[]	*	*k[b-e-a-]	*	*k[b-e-]	*	*k[b-]	*	*k[]	*
*	*	*	*	*	*	*	*	*	*	*	*	*	*	*	*	*	*	*	*	*	*	*	*	*	*
*M4/4	*	*M4/4	*	*M4/4	*	*M4/4	*	*M4/4	*	*M4/4	*	*M4/4	*M4/4	*	*M4/4	*M4/4	*	*M4/4	*	*M4/4	*	*M4/4	*	*M4/4	*
=1	=1	=1	=1	=1	=1	=1	=1	=1	=1	=1	=1	=1	=1	=1	=1	=1	=1	=1	=1	=1	=1	=1	=1	=1	=1
!LO:TX:a:t=[con sord.]	!	!LO:TX:a:t=[con sord.]	!	!LO:TX:a:t=[con sord.]	!	!LO:TX:a:t=[con sord.]	!LO:DY:ed=brack	!LO:TX:a:t=[con sord.]	!	!LO:TX:t=[[quarter]=96]	!	!	!	!	!	!	!	!	!LO:DY:ed=brack	!	!LO:DY:ed=brack	!	!LO:DY:ed=brack	!LO:TX:t=[[quarter]=96]	!LO:DY:ed=brack
8r	.	8r	.	4r	.	8r	.	4r	.	8r	.	1r	4r	.	1r	4r	.	[2g-X	p	[1ee-	mf	[2f#X	p	8aa^L	p
!	!LO:DY:ed=brack	!	!LO:DY:ed=brack	!	!	!	!LO:DY:ed=brack	!	!	!LO:TX:a:rj:t=[con sord.]	!LO:DY:ed=brack	!	!	!	!	!	!	!	!	!	!	!	!	!	!
4e	pp	(\8eL	pp	.	.	(8eL	pp	.	.	(8eL	pp	.	.	.	.	.	.	.	.	.	.	.	.	8gg	.
.	.	\8a	.	8r	.	8a	.	8r	.	8a	.	.	8r	.	.	8r	.	.	.	.	.	.	.	8ff#XJ	.
!	!	!LO:TX:t=P:problem:Grace notes should npt be beamed with 8th notes.	!	!	!	!	!	!	!	!	!	!	!	!	!	!	!	!	!	!	!	!	!	!	!
8qa#X/	.	/8qa#X	.	.	.	.	.	.	.	.	.	.	.	.	.	.	.	.	.	.	.	.	.	.	.
=:	=:	=:	=:	=:	=:	=:	=:	=:	=:	=:	=:	=:	=:	=:	=:	=:	=:	=-	=-	=-	=-	=-	=-	=:	=:
!	!	!	!	!	!LO:DY:ed=brack	!	!	!	!LO:DY:ed=brack	!	!	!	!	!LO:DY:ed=brack	!	!	!LO:DY:ed=brack	!	!	!	!	!	!	!	!
[8b	.	[8bJ	.	[8a#X~	pp	[8e~J	.	[8e~	pp	[8a#X~J	.	.	4e~: 4a#X:	p	.	4e~: 4b:	p	.	.	.	.	.	.	[4ee	.
8b]	.	8bL]	.	8a#]	.	8eL]	.	8e]	.	8a#L]	.	.	.	.	.	.	.	8g-]	.	.	.	8f#]	.	.	.
8r	.	8an	.	8r	.	8a	.	8r	.	8an	.	.	8r	.	.	8r	.	4.f	.	.	.	(4.f	.	4.ee_	.
(>8qa#~/	.	8qa#X/	.	.	.	.	.	.	.	.	.	.	.	.	.	.	.	.	.	.	.	.	.	.	.
8bL	.	8bJ)	.	(8e~L	.	8a#XJ)	.	(8a#X~L	.	8e~)J	.	.	4e~: 4a#:	.	.	4e~: 4b:	.	.	.	.	.	.	.	.	.
8anJ)	.	8r	.	8anJ)	.	8r	.	8anJ)	.	8r	.	.	.	.	.	.	.	.	.	.	.	.	.	.	.
=2	=2	=2	=2	=2	=2	=2	=2	=2	=2	=2	=2	=2	=2	=2	=2	=2	=2	=2	=2	=2	=2	=2	=2	=2	=2
8r	.	8r	.	4r	.	8r	.	4r	.	8r	.	1r	4r	.	1r	4r	.	2.c	.	2.ee-]	.	2.c)	.	2.ee])	.
4e	.	(\8eL	.	.	.	(8eL	.	.	.	(8eL	.	.	.	.	.	.	.	.	.	.	.	.	.	.	.
.	.	\8an	.	8r	.	8an	.	8r	.	8a	.	.	8r	.	.	8r	.	.	.	.	.	.	.	.	.
8qa#X/	.	/8qa#X/	.	.	.	.	.	.	.	.	.	.	.	.	.	.	.	.	.	.	.	.	.	.	.
=:	=:	=:	=:	=:	=:	=:	=:	=:	=:	=:	=:	=:	=:	=:	=:	=:	=:	=-	=-	=-	=-	=-	=-	=-	=-
[8b	.	[8bJ	.	[8a#X~	.	[8e~J	.	[8e~	.	[8a#X~J	.	.	4e~: 4a#X:	.	.	4e~: 4b:	.	.	.	.	.	.	.	.	.
8b]	.	8bL]	.	8a#]	.	8eL]	.	8e]	.	8a#L]	.	.	.	.	.	.	.	.	.	.	.	.	.	.	.
8r	.	8an	.	8r	.	8a	.	8r	.	8an	.	.	8r	.	.	8r	.	.	.	.	.	.	.	.	.
8qa#~/	.	8qa#X/	.	.	.	.	.	.	.	.	.	.	.	.	.	.	.	.	.	.	.	.	.	.	.
(>8bL	.	8bJ)	.	(8e~L	.	8a#XJ)	.	(8a#X~L	.	8e~J)	.	.	4e~: 4a#:	.	.	4e~: 4b:	.	4d-X	.	4r	.	4c#X	.	4r	.
8anJ)	.	8r	.	8anJ)	.	8r	.	8anJ)	.	8r	.	.	.	.	.	.	.	.	.	.	.	.	.	.	.
=3	=3	=3	=3	=3	=3	=3	=3	=3	=3	=3	=3	=3	=3	=3	=3	=3	=3	=3	=3	=3	=3	=3	=3	=3	=3
8r	.	8r	.	4r	.	8r	.	4r	.	8r	.	1r	4r	.	1r	4r	.	[2g-X	.	1r	.	[2f#X	.	1r	.
4e	.	(\8eL	.	.	.	(8eL	.	.	.	(8eL	.	.	.	.	.	.	.	.	.	.	.	.	.	.	.
.	.	\8a	.	8r	.	8an	.	8r	.	8a	.	.	8r	.	.	8r	.	.	.	.	.	.	.	.	.
8qb/	.	/8qb/	.	.	.	.	.	.	.	.	.	.	.	.	.	.	.	.	.	.	.	.	.	.	.
=:	=:	=:	=:	=:	=:	=:	=:	=:	=:	=:	=:	=:	=:	=:	=:	=:	=:	=-	=-	=-	=-	=-	=-	=:	=:
[8cc	.	[8ccJ	.	[8b~	.	[8e~J	.	[8e~	.	[8b~J	.	.	4e~: 4b:	.	.	4e~: 4cc:	.	.	.	.	.	.	.	.	.
8cc]	.	8ccL]	.	8b]	.	8eL]	.	8e]	.	8bL]	.	.	.	.	.	.	.	8g-L]	.	.	.	8f#L]	.	.	.
8r	.	8a	.	8r	.	8a	.	8r	.	8a	.	.	8r	.	.	8r	.	8a--X	.	.	.	8g	.	.	.
(>8qb~/	.	8qb/	.	.	.	.	.	.	.	.	.	.	.	.	.	.	.	.	.	.	.	.	.	.	.
8ccL	.	8ccJ)	.	(8e~L	.	8bJ)	.	(8b~L	.	8e~J)	.	.	4e~: 4b:	.	.	4e~: 4cc:	.	8g-	.	.	.	8f#	.	.	.
8anJ)	.	8r	.	8anJ)	.	8r	.	8aJ)	.	8r	.	.	.	.	.	.	.	8fJ	.	.	.	8fJ	.	.	.
=4	=4	=4	=4	=4	=4	=4	=4	=4	=4	=4	=4	=4	=4	=4	=4	=4	=4	=4	=4	=4	=4	=4	=4	=4	=4
8r	.	8r	.	4r	.	8r	.	4r	.	8r	.	1r	4r	.	1r	4r	.	[2c	.	1r	.	[2c	.	1r	.
4e	.	(\8eL	.	.	.	(8eL	.	.	.	(8eL	.	.	.	.	.	.	.	.	.	.	.	.	.	.	.
.	.	8a\	.	8r	.	8a	.	8r	.	8a	.	.	8r	.	.	8r	.	.	.	.	.	.	.	.	.
8qb/	.	8qb/	.	.	.	.	.	.	.	.	.	.	.	.	.	.	.	.	.	.	.	.	.	.	.
=:	=:	=:	=:	=:	=:	=:	=:	=:	=:	=:	=:	=:	=:	=:	=:	=:	=:	=-	=-	=-	=-	=-	=-	=-	=-
[8cc	.	[8ccJ	.	[8b~	.	[8e~J	.	[8e~	.	[8b~J	.	.	4e~: 4b:	.	.	4e~: 4cc:	.	.	.	.	.	.	.	.	.
8cc]	.	8ccL]	.	8b]	.	8eL]	.	8e]	.	8bL]	.	.	.	.	.	.	.	8cL]	.	.	.	8cL]	.	.	.
8r	.	8a	.	8r	.	8a	.	8r	.	8a	.	.	8r	.	.	8r	.	8d-X	.	.	.	8c#X	.	.	.
(>8qb~/	.	8qb/	.	.	.	.	.	.	.	.	.	.	.	.	.	.	.	.	.	.	.	.	.	.	.
8ccL	.	8ccJ)	.	(8e~L	.	8bJ)	.	(8b~L	.	8e~J)	.	.	4e~: 4b:	.	.	4e~: 4cc:	.	8c	.	.	.	8c	.	.	.
8aJ)	.	8r	.	8aJ)	.	8r	.	8aJ)	.	8r	.	.	.	.	.	.	.	8d-J	.	.	.	8c#XJ	.	.	.
!!LO:REH:t=13
=5	=5	=5	=5	=5	=5	=5	=5	=5	=5	=5	=5	=5	=5	=5	=5	=5	=5	=5	=5	=5	=5	=5	=5	=5	=5
8r	.	1r	.	4r	.	8r	.	4r	.	8r	.	1r	4r	.	1r	4r	.	(1b--X	.	2r	.	(1a	.	1r	.
[4.f	.	.	.	.	.	(8fL	.	.	.	(8fL	.	.	.	.	.	.	.	.	.	.	.	.	.	.	.
.	.	.	.	8r	.	8a	.	8r	.	8a	.	.	8r	.	.	8r	.	.	.	.	.	.	.	.	.
=:	=:	=:	=:	=:	=:	=:	=:	=:	=:	=:	=:	=:	=:	=:	=:	=:	=:	=-	=-	=-	=-	=-	=-	=-	=-
.	.	.	.	[8cc~	.	[8f~J	.	[8f~	.	[8cc~J	.	.	4f~ 4cc	.	.	4f~ 4cc	.	.	.	.	.	.	.	.	.
8f]	.	.	.	8cc]	.	8fL]	.	8f]	.	8ccL]	.	.	.	.	.	.	.	.	.	8r	.	.	.	.	.
8r	.	.	.	8r	.	8b	.	8r	.	8a	.	.	8r	.	.	8r	.	.	.	(4eeX	.	.	.	.	.
4r	.	.	.	(8f~L	.	8ccJ)	.	(8cc~L	.	8f~J)	.	.	4f~ 4cc	.	.	4f~ 4cc	.	.	.	.	.	.	.	.	.
.	.	.	.	8bJ)	.	8r	.	8bJ)	.	8r	.	.	.	.	.	.	.	.	.	8cc#X	.	.	.	.	.
=||	=||	=||	=||	=||	=||	=||	=||	=||	=||	=||	=||	=||	=||	=||	=||	=||	=||	=||	=||	=||	=||	=||	=||	=||	=||
*-	*-	*-	*-	*-	*-	*-	*-	*-	*-	*-	*-	*-	*-	*-	*-	*-	*-	*-	*-	*-	*-	*-	*-	*-	*-
!!!system-decoration: [([(s1,s2)]s3,s4)][({(s5,s6)})][({(s7,s8)})][([(s9,s10)][(s11,s12)][(s13,s14)])]
!!!RDF**kern: > = above
!!!RDF**kern: < = below
!!!EED: Rafael Laurindo
!!!EEV: 2021/09/21
!!!EED2: Gabriella Vici
!!!Suter_Work_ID: Cop-1
!!!Suter_Example_Number: 697
!!!Suter_Example_ID: Cop-1 bis/25/4-1[13]1
!!!Premiere_Location: Philadelphia,United States
!!!Other_Tsigs: none
!!!Full_Unit_Duration: 7:57
!!!First_Publication_Year: 1931
!!!First_Public_Performance_Year: 1927
!!!Example_Total_Measures: 5
!!!Example_Timestamp_Duration: 15
!!!Example_Start_Tsig_Type: simple quadruple
!!!Example_Start_Tsig_Mean_Beat_Rate: 96
!!!Example_Start_Tsig_Beat_Rate: 96
!!!Example_Start_Tsig_Beat: quarter
!!!Example_Start_Tsig: 4/4
!!!Example_Start_Timestamp: 2:59
!!!Example_Start_Tempo_Expression: [Subito moderato]
!!!Example_Start_Notated_Beat_Rate: [96]
!!!Example_Start_Notated_Beat: [quarter]
!!!Example_Start_Measure: 131
!!!Example_Metadata_Validated: Y
!!!Example_End_Timestamp: 3:14
!!!Example_End_Measure: 135
!!!Example_Dataset: T
!!!Editorial_Comments: Example Start Notated Beat and Example Start Notated Beat Rate [quarter=96] based on most recent notated beat rate (SWFU, m. 124). Example Start Tempo Expression [Subito moderato] based on most recent notated tempo expression (SWFU, m. 124). Editorial Note: First version for organ and orchestra written in 1924; re-orchestrated without organ in 1928 with current title; full work premiered in 1931 (Berlin, Berlin Philharmonic Orchestra, E. Ansermet), but Scherzo premiered in 1927 (Philadelphia, Philadelphia Orchestra, F. Reiner); \"bis\" refers to second version of Cop-1. The transcribed example is the 1928 version.
!!!Death_Place: North Tarrytown,United States
!!!Death_Date: 2-Dec-1990
!!!Changing_Tsig: no
!!!Birth_Place: Brooklyn,United States
!!!Birth_Date: 14-Nov-1900
!!!Audio_Example_Quarter_Note_Tempo:
!!!Audio_Example_Duration:
!!!EEV2: 2022/03/01
